!!!ONB: MCCC : ILB0324_01 : Extracted Monophonic Melody
!!!COM: Beethoven, Ludwig van
!!!OPR: Violin Sonata No.3 in E-flat major
!!!OMV: 1
!!!SCT: Op.12 No.3
!!!ODT: 1797///
**kern
*staff1
*clefG2
*k[b-e-a-]
*E-:
*M4/4
4.e-
2r
=2
1a-
=3
24a-
24f
24d
4.B-
2r
=4
1ee-
=5
24ee-
24b-
24g
8r
4e-
4.b-[
16b-]
16a
=6
16b-
16g
8f
4r
4.cc[
16cc]
16b
=7
16cc
16a-
8f
4d
4e-[
8e-]
8f
=8
4f
4B-[
8.B-]
16b-
16cc
16dd
16ee-
16ff
=9
16gg
8.aa-
8.bb-
16gg
16aa-
16ff
8ee
4r
=10
4.ccc[
16ccc]
16aa-
16bb-
16gg
8ff
4r
=11
4.eee-[
16eee-]
16ccc
16ddd
16bb-
8aa
8aa
8aa
=12
4aa
4bb-
4bb-
4dd[
=13
8dd]
8ee-
8g
8g
8g
8g
8g
8g
=14
8g
8a-
8a-
8a-
8a-
8a-
8a-
8a-
=15
8a-
16g
16bb-
16aa
16bb-
16ccc
16bb-
16aa-
8gg
16gg
16ff#
16gg
16aa-
16gg
=16
16ff
8ee-
16aa-
16gg
16aa-
16bb-
16aa-
16gg
16ff
16ee-
16dd
16cc
16b-
16a
16b-
=17
16cc
16a-
16g
16b-
16a
16b-
16cc
16b-
16a-
8g
16g
16f#
16g
16a-
16g
=18
16f
8.e-
2.g[
=19
4g]
4r
2r
=20
1f[
=21
4f]
4r
2r
=22
4bb-
4ddd-
4ddd-
4b-
=23
16.b-
32b-[
8b-]
4ff
8ee-
8dd-
8cc
8b-
=24
4a
4b-
4cc
8dd-
8ee[
=25
8ee]
4.ff
8ee-
8dd-
8cc
8b-
=26
4a
4b-
4cc
4dd-
=27
8b-
16a
16cc
16b-
16a
16b-
16dd-
16cc
16b-
16a
16cc
16b-
16a
16b-
16dd-
=28
16cc
16b-
16a
16cc
16b-
16dd
16cc
16ee-
16dd
16ff
16ee-
16dd
16cc
16b-
16a
16g
=29
16f
16e-
8d
8f
8b-
8dd
4.ff
=30
16dd
16b-
4.b-
16cc
8.b-
8a
32cc
32b-
32cc
32b-
=31
32cc
32b-
32a
32b-
8b
8cc
8dd-
8dd
8ee-
8ee
8ff
=32
4cc
4ee-[
8ee-]
4.dd
=33
8r
4.ff
8b
8cc
24dd
24cc
24b
8cc
=34
8dd
4.ee-
8a
8b-
24cc
24b-
24a
8b-
=35
8ddd
8ddd
8ccc
8bb-
8aa
8aa
8gg
8ff
=36
4ee
4ff
2r
=37
8r
16d
16f
16B-
16f
16d
16f
16B-
16f
16d
16f
16B-
16f
16d
16f
=38
16B-
16f
16e-
16f
16c
16f
16e-
16f
16c
16f
16e-
16f
16c
16f
16d
16f
=39
16B-
16f
16c
16f
16A
16f
16c
16f
16A
16f
16c
16f
16A
16f
16c
16f
=40
16A
16f
16c
16f
16A
16f
16c
16f
16A
16f
16B-
16c
16d
16e-
16f
16e-
=41
16d
16c
16B
16g
16d
16g
16B
16g
16d
16g
16c
16e-
16g
16f
16e-
16d
=42
16c
16B-
16A
16f
16c
16f
16A
16f
16c
16f
16B-
16d
16f
16b-
16f
16b-
=43
16d
16b-
16g
16b-
16e-
16b-
16g
16b-
16e-
16b-
16d
16b-
16f
16b-
16e-
16f
=44
16c
8.e-
4d
2r
=45
8r
24ee-
24ff
24gg
24ff
24ee-
24dd
24cc
24dd
24ee-
24dd
24cc
24b-
24a
24b-
24cc
24b-
24a
24g
24f
24g
24a
=46
24g
24f
24e-
4.d
2r
=47
8r
24ff
24gg
24aa-
24gg
24ff
24ee-
24dd
24ee-
24ff
24ee-
24dd
24cc
24b
24cc
24dd
24cc
24b
24a-
24g
24a-
24g
=48
1e-[
=49
8e-]
24a-
24b-
24cc
24b-
24a-
24g
24f
24g
24a-
24g
24f
24e-
24d
24e-
24f
24e-
24d
24c
24B-
24c
24d
=50
24c
24B-
24A-
8G
4b-
4b-
8d
8f[
=51
4f]
4b-
8.b-
16d-
4f[
=52
8.f]
16f
16f
16f
16f
16e-
16g-
16g-
16g-
16e-
16e-
16e-
16e-
16d-
=53
16f
16f
16f
16d-
16d-
16d-
16d-
16c
16e-
16e-
16e-
16c
16c
16c
16c
16B-
=54
16b-
16b-
16a
16b-
16b-
16b-
16a
16b-
16b-
16b-
16b-
16f
16d
16B-
16B-
16A
=55
16A
16A
16B-
16f
16f
16f
16e
16f
16f
16f
16f
16b-
16b-
16b-
16a
16b-
=56
16b-
8.b-
4f
4g-
4g-[
=57
8g-]
8g
8r
8b-
4.dd
16cc
16a
=58
16f
8.e-
4d
2r
=59
4r
8r
8d
8r
8a-
4r
=60
4r
8r
8e-
8r
8b-
4r
=61
4r
8r
8c
8r
8a
4r
=62
4r
8r
8d
8r
8b-
4r
=63
4r
8r
8c
8r
8a
4r
=64
2b-
2b-
=65
2b-
2f
=66
1d
=67
1d[
=68
8d]
4.e-
2r
=69
1a-
=70
24a-
24f
24d
4.B-
2r
=71
1ee-
=72
24ee-
24b-
24g
8r
4e-
4.b-[
16b-]
16a
=73
16b-
16g
8f
4r
4.cc[
16cc]
16b
=74
16cc
16a-
8f
4d
4e-[
8e-]
8f
=75
4f
4B-[
8.B-]
16b-
16cc
16dd
16ee-
16ff
=76
16gg
8.aa-
8.bb-
16gg
16aa-
16ff
8ee
4r
=77
4.ccc[
16ccc]
16aa-
16bb-
16gg
8ff
4r
=78
4.eee-[
16eee-]
16ccc
16ddd
16bb-
8aa
8aa
8aa
=79
4aa
4bb-
4bb-
4dd[
=80
8dd]
8ee-
8g
8g
8g
8g
8g
8g
=81
8g
8a-
8a-
8a-
8a-
8a-
8a-
8a-
=82
8a-
16g
16bb-
16aa
16bb-
16ccc
16bb-
16aa-
8gg
16gg
16ff#
16gg
16aa-
16gg
=83
16ff
8ee-
16aa-
16gg
16aa-
16bb-
16aa-
16gg
16ff
16ee-
16dd
16cc
16b-
16a
16b-
=84
16cc
16a-
16g
16b-
16a
16b-
16cc
16b-
16a-
8g
16g
16f#
16g
16a-
16g
=85
16f
8.e-
2.g[
=86
4g]
4r
2r
=87
1f[
=88
4f]
4r
2r
=89
4bb-
4ddd-
4ddd-
4b-
=90
16.b-
32b-[
8b-]
4ff
8ee-
8dd-
8cc
8b-
=91
4a
4b-
4cc
8dd-
8ee[
=92
8ee]
4.ff
8ee-
8dd-
8cc
8b-
=93
4a
4b-
4cc
4dd-
=94
8b-
16a
16cc
16b-
16a
16b-
16dd-
16cc
16b-
16a
16cc
16b-
16a
16b-
16dd-
=95
16cc
16b-
16a
16cc
16b-
16dd
16cc
16ee-
16dd
16ff
16ee-
16dd
16cc
16b-
16a
16g
=96
16f
16e-
8d
8f
8b-
8dd
4.ff
=97
16dd
16b-
4.b-
16cc
8.b-
8a
32cc
32b-
32cc
32b-
=98
32cc
32b-
32a
32b-
8b
8cc
8dd-
8dd
8ee-
8ee
8ff
=99
4cc
4ee-[
8ee-]
4.dd
=100
8r
4.ff
8b
8cc
24dd
24cc
24b
8cc
=101
8dd
4.ee-
8a
8b-
24cc
24b-
24a
8b-
=102
8ddd
8ddd
8ccc
8bb-
8aa
8aa
8gg
8ff
=103
4ee
4ff
2r
=104
8r
16d
16f
16B-
16f
16d
16f
16B-
16f
16d
16f
16B-
16f
16d
16f
=105
16B-
16f
16e-
16f
16c
16f
16e-
16f
16c
16f
16e-
16f
16c
16f
16d
16f
=106
16B-
16f
16c
16f
16A
16f
16c
16f
16A
16f
16c
16f
16A
16f
16c
16f
=107
16A
16f
16c
16f
16A
16f
16c
16f
16A
16f
16B-
16c
16d
16e-
16f
16e-
=108
16d
16c
16B
16g
16d
16g
16B
16g
16d
16g
16c
16e-
16g
16f
16e-
16d
=109
16c
16B-
16A
16f
16c
16f
16A
16f
16c
16f
16B-
16d
16f
16b-
16f
16b-
=110
16d
16b-
16g
16b-
16e-
16b-
16g
16b-
16e-
16b-
16d
16b-
16f
16b-
16e-
16f
=111
16c
8.e-
4d
2r
=112
8r
24ee-
24ff
24gg
24ff
24ee-
24dd
24cc
24dd
24ee-
24dd
24cc
24b-
24a
24b-
24cc
24b-
24a
24g
24f
24g
24a
=113
24g
24f
24e-
4.d
2r
=114
8r
24ff
24gg
24aa-
24gg
24ff
24ee-
24dd
24ee-
24ff
24ee-
24dd
24cc
24b
24cc
24dd
24cc
24b
24a-
24g
24a-
24g
=115
1e-[
=116
8e-]
24a-
24b-
24cc
24b-
24a-
24g
24f
24g
24a-
24g
24f
24e-
24d
24e-
24f
24e-
24d
24c
24B-
24c
24d
=117
24c
24B-
24A-
8G
4b-
4b-
8d
8f[
=118
4f]
4b-
8.b-
16d-
4f[
=119
8.f]
16f
16f
16f
16f
16e-
16g-
16g-
16g-
16e-
16e-
16e-
16e-
16d-
=120
16f
16f
16f
16d-
16d-
16d-
16d-
16c
16e-
16e-
16e-
16c
16c
16c
16c
16B-
=121
16b-
16b-
16a
16b-
16b-
16b-
16a
16b-
16b-
16b-
16b-
16f
16d
16B-
16B-
16A
=122
16A
16A
16B-
16f
16f
16f
16e
16f
16f
16f
16f
16b-
16b-
16b-
16a
16b-
=123
16b-
8.b-
4f
4g-
4g-[
=124
8g-]
8g
8r
8b-
4.dd
16cc
16a
=125
16f
8.e-
4d
2r
=126
4r
8r
8d
8r
8a-
4r
=127
4r
8r
8e-
8r
8b-
4r
=128
4r
8r
8c
8r
8a
4r
=129
4r
8r
8d
8r
8b-
4r
=130
4r
8r
8c
8r
8a
4r
=131
2b-
2b-
=132
2b-
2f
=133
1d
=134
1d[
=135
2d]
2dd
=136
2dd
2f
=137
1e-
=138
4cc
2.cc[
=139
2cc]
2a
=140
2a
2cc
=141
2d
2r
=142
8r
24cc
24dd
24ee-
24dd
24cc
24b-
24a
24b-
24cc
24b-
24a
24g
24f#
24a
24cc
24b-
24a
24g
24g-
24e-
24d
=143
24c
24B-
24A
8r
4G
2r
=144
8r
24ee-
24ff
24gg
24ff
24ee-
24dd
24cc
24dd
24ee-
24dd
24cc
24b-
24a-
24cc
24ee-
24dd
24cc
24b-
24a-
24g
24f
=145
24e-
24d
24c
8r
4B
2r
=146
1g-
=147
4g
2g[
8g]
8f#
=148
8r
8g
4r
2r
=149
4r
4ff
16dd
16cc
8b
4r
=150
4r
4gg
16ee-
16dd
8cc
4r
=151
4r
4aa-
4ff
4dd
=152
8gg
8ee-
8cc
8cc
8cc
8cc
8cc
8cc
=153
8cc
8cc
8cc
8cc
8cc
8cc
8cc
8cc
=154
8cc
8cc
8cc
8cc
8cc
8cc
8cc
8cc
=155
8cc
8cc
8cc
8cc
8cc
8cc
8cc
8cc
=156
4cc
4cc
4r
8dd-
8cc
=157
8dd-
8ee-
8cc
8a
4r
8ee-
8dd-
=158
8ee-
8ff
8dd-
8b-
4r
8ff
8ee
=159
4ff
4gg-
4ee-
4cc
=160
4ff
4bb
4aa-
4ff
=161
4bb-
4gg-
4gg-
8gg-
8gg-
=162
4gg-
4aa-
4ee
4dd-
=163
4gg-
4ee-
2r
=164
2.ee-[
8ee-]
8dd-
=165
4b
4b
4b
8a#
32b
32b-
32a-
32b-
=166
8b
8dd-
8r
8dd-
4.dd-
8dd
=167
2dd[
8dd]
4.ee-
=168
2.ee-[
8ee-]
8dd-
=169
4b
4b-
4a
4a[
=170
4a]
4r
4b-
4b-[
=171
8b-]
4.e-
2r
=172
1a-
=173
24a-
24f
24d
4.B-
2r
=174
1ee-
=175
24ee-
24b-
24g
4.e-
4.b-[
16b-]
16a
=176
16b-
16g
8f
4r
4.cc[
16cc]
16b
=177
16cc
16a-
8f
4d
4e-[
8e-]
8f
=178
4f
4B-[
8.B-]
16e-
16f
16g
16a-
16b-
=179
16cc
8.dd-
8.ee-
16cc
16dd-
16b-
8a-
4r
=180
4.ff[
16ff]
16dd-
16ee-
16cc
8b-
4r
=181
2G
4dd-
4dd-[
=182
8dd-]
16cc
16ee-
16dd
16ee-
16ff
16ee-
16dd-
8cc
16cc
16b
16cc
16dd-
16cc
=183
16b-
8a-
16dd-
16cc
16dd-
16ee-
16dd-
16cc
16b-
16a-
16g
16f
16e-
16d
16e-
=184
16f
16d-
8c
8cc
8cc
8cc
8cc
8cc
8cc
=185
8cc
8dd-
8dd-
8dd-
8dd-
8dd-
8dd-
8b-
=186
8.b-
16cc
16b
16cc
16dd-
16cc
16b-
16a-
16g
16f
16e
16f
16g
16f
=187
16a-
8.c
4d[
8d]
4.e-
=188
16f
16g
16a-
16a-
16g
16a-
16b-
16a-
16g
16f
16e-
16d
16c
16B-
16A
16B-
=189
16c
16A-
16G
16e-
16B-
16e-
16G
16e-
16B-
16e-
16A
16e-
16c
16e-
16A
16e-
=190
16c
16e-
16d
16f
16d
16f
16e-
16c
16f
16e-
16d
16B-
16f
16d
16e-
16c
=191
16f
16e-
16d
16f
16b-
16f
16dd
16b-
16ff
16dd
16aa-
16gg
16ff
16ee-
16dd
16cc
=192
16b-
16a-
8g
8b-
8ee-
8gg
4.bb-
=193
16gg
16ee-
4.ee-
16ff
8.ee-
8dd
32ff
32ee-
32ff
32ee-
=194
32ff
32ee-
32dd
32ee-
8ee
8ff
8gg-
8gg
8aa-
8aa
8bb-
=195
4ff
4aa-[
8aa-]
4.gg
=196
8r
4.bb-
8ee
8ff
24gg
24ff
24ee
8ff
=197
8gg
4.aa-
8dd
8ee-
32ff
32ee-
32dd
32ee-
8ff
=198
8gg
8gg
8ff
8ee-
8dd
8dd
8cc
8b-
=199
4a
4b-
2r
=200
8r
16g
16b-
16e-
16b-
16g
16b-
16e-
16b-
16g
16b-
16e-
16b-
16g
16b-
=201
16e-
16b-
16a-
16b-
16f
16b-
16a-
16b-
16f
16b-
16a-
16b-
16f
16b-
16g
16b-
=202
16e-
16b-
16f
16b-
16d
16b-
16f
16b-
16d
16b-
16f
16b-
16d
16b-
16f
16b-
=203
16d
16b-
16f
16b-
16d
16b-
16f
16b-
16d
16b-
16e-
16g
16b-
16a
16b-
16a-
=204
16g
16f
16e
16cc
16g
16cc
16e
16cc
16g
16cc
16f
16a-
16cc
16b-
16a-
16g
=205
16f
16e-
16d
16b-
16f
16b-
16d
16b-
16f
16b-
16e-
16b-
16g
16b-
16e-
16b-
=206
16g
16b-
16e-
16a-
16cc
16b
16dd
16cc
16b-
16a-
16g
16b-
16g
16e-
16d
16B-
=207
16A-
8.B-
4G
2r
=208
8r
24a-
24b-
24cc
24b-
24a-
24g
24f
24g
24a-
24g
24f
24e-
24d
24e-
24f
24e-
24d
24c
24B-
24c
24d
=209
24c
24B-
24A-
4.G
2r
=210
8r
24b-
24cc
24dd-
24cc
24b-
24a-
24g
24a-
24b-
24a-
24g
24f
24e
24g
24b-
24a-
24g
24f
24e
24d-
24c
=211
24B-
24A-
24G
8r
4A-
2a-[
=212
8a-]
24dd-
24ee-
24ff
24ee-
24dd-
24cc
24b-
24cc
24dd-
24cc
24b-
24a-
24g
24a-
24b-
24a-
24g
24f
24e-
24f
24g
=213
24f
24e-
24d-
8c
4ee-
4ee-
8g
8b-[
=214
4b-]
4ee-
8.ee-
16g-
4b-[
=215
8.b-]
16b-
16b-
16b-
16b-
16a-
16a-
16a-
16a-
16g
16a-
16a-
16a-
16g-
=216
16g-
16g-
16g-
16f
16g-
16g-
16g-
16f
16f
16f
16f
16e
16f
16f
16f
16e-
=217
16e-
16e-
16d
16e-
16e-
16e-
16d
16e-
16e-
16e-
16d
16e-
16e-
16e-
16e-
16d
=218
16d
16d
16e-
16b-
16b-
16b-
16a
16b-
16b-
16b-
16b-
16ee-
16ee-
16ee-
16dd
16ee-
=219
16ee-
8.ee-
4b-
4b
4b[
=220
8b]
8cc
4r
2ee-
=221
16bb-
8.dd
4ee-
2r
=222
4r
8r
8B-
8r
8g
4r
=223
4r
8r
8c
8r
8a-
4r
=224
4r
8r
8a-
8r
8d
4r
=225
4r
8r
8b-
8r
8e-
4r
=226
4r
8r
8a-
8r
8d
4r
=227
2e-
16r
32r
32e-
4.bb-
=228
16r
32r
32e-
4.gg
2e-
=229
1e-[
=230
4e-]
4r
8r
4.cc
=231
16a-
8.f
4d
2r
=232
2.ee-
16ff
16gg
16aa-
16bb-
=233
16ccc
16ddd
8eee-
4r
4.bb-[
16bb-]
16aa
=234
16bb-
16gg
8ff
4r
4.cc[
16cc]
16b
=235
16cc
16a-
8f
4r
2r
=236
4.b-[
16b-]
16g
16a-
16f
8e-
8r
8e-
=237
2d
2r
=238
8r
24b-
24ee-
24dd
24cc
24b-
24a-
24g
24cc
24b-
24a-
24g
24f
8e-
8e-
8e-
=239
4e-
4d
2d[
=240
8d]
8e-
16r
32r
32e-
8gg
2e-
=241
16r
32r
32e-
8r
4r
2r
==
*-
